src/Resource_Files/fluent/reload-page.svg

<svg clip-rule="evenodd" fill-rule="evenodd" stroke-linejoin="round" stroke-miterlimit="2" viewBox="0 0 16 16" xmlns="http://www.w3.org/2000/svg"><g fill="#1abc9c" fill-rule="nonzero"><path d="m1.332 9.14c.258-.064.52.094.583.353.071.286.163.571.277.854 1.296 3.207 4.947 4.757 8.155 3.461 1.529-.618 2.682-1.771 3.329-3.157l.115-.262c.009-.023.02-.044.032-.064l-1.965.793c-.246.1-.527-.019-.627-.266s.02-.527.266-.627l2.681-1.083c.247-.1.528.019.627.266l1.083 2.681c.1.246-.019.527-.266.627s-.527-.02-.627-.266l-.509-1.26c-.757 1.54-2.062 2.818-3.778 3.512-3.702 1.495-7.914-.293-9.41-3.994-.131-.325-.237-.654-.318-.985-.064-.258.094-.519.352-.583z"/><path d="m.378 3.284c.247-.1.527.02.627.266l.509 1.26c.757-1.54 2.062-2.818 3.778-3.512 3.702-1.495 7.914.293 9.41 3.994.131.325.237.654.318.985.064.258-.094.519-.352.583s-.52-.094-.583-.353c-.071-.286-.163-.571-.277-.854-1.296-3.207-4.947-4.757-8.155-3.461-1.529.618-2.681 1.771-3.329 3.157l-.115.262c-.009.023-.02.044-.032.064l1.965-.793c.246-.1.527.019.627.266s-.02.527-.266.627l-2.681 1.083c-.247.1-.528-.019-.627-.266l-1.083-2.681c-.1-.246.019-.527.266-.627z"/></g></svg>

<?xml version="1.0" encoding="UTF-8" standalone="no"?>
<!DOCTYPE svg PUBLIC "-//W3C//DTD SVG 1.1//EN" "http://www.w3.org/Graphics/SVG/1.1/DTD/svg11.dtd">
<svg width="100%" height="100%" viewBox="0 0 16 16" version="1.1" xmlns="http://www.w3.org/2000/svg" xmlns:xlink="http://www.w3.org/1999/xlink" xml:space="preserve" xmlns:serif="http://www.serif.com/" style="fill-rule:evenodd;clip-rule:evenodd;stroke-linejoin:round;stroke-miterlimit:2;">
    <path id="reload" d="M1.332,9.14C1.59,9.076 1.852,9.234 1.915,9.493C1.986,9.779 2.078,10.064 2.192,10.347C3.488,13.554 7.139,15.104 10.347,13.808C11.876,13.19 13.029,12.037 13.676,10.651L13.791,10.389C13.8,10.366 13.811,10.345 13.823,10.325L11.858,11.118C11.612,11.218 11.331,11.099 11.231,10.852C11.131,10.605 11.251,10.325 11.497,10.225L14.178,9.142C14.425,9.042 14.706,9.161 14.805,9.408L15.888,12.089C15.988,12.335 15.869,12.616 15.622,12.716C15.375,12.816 15.095,12.696 14.995,12.45L14.486,11.19C13.729,12.73 12.424,14.008 10.708,14.702C7.006,16.197 2.794,14.409 1.298,10.708C1.167,10.383 1.061,10.054 0.98,9.723C0.916,9.465 1.074,9.204 1.332,9.14Z" style="fill:rgb(26,188,156);fill-rule:nonzero;"/>
    <path id="reload1" serif:id="reload" d="M0.378,3.284C0.625,3.184 0.905,3.304 1.005,3.55L1.514,4.81C2.271,3.27 3.576,1.992 5.292,1.298C8.994,-0.197 13.206,1.591 14.702,5.292C14.833,5.617 14.939,5.946 15.02,6.277C15.084,6.535 14.926,6.796 14.668,6.86C14.41,6.924 14.148,6.766 14.085,6.507C14.014,6.221 13.922,5.936 13.808,5.653C12.512,2.446 8.861,0.896 5.653,2.192C4.124,2.81 2.972,3.963 2.324,5.349L2.209,5.611C2.2,5.634 2.189,5.655 2.177,5.675L4.142,4.882C4.388,4.782 4.669,4.901 4.769,5.148C4.869,5.395 4.749,5.675 4.503,5.775L1.822,6.858C1.575,6.958 1.294,6.839 1.195,6.592L0.112,3.911C0.012,3.665 0.131,3.384 0.378,3.284Z" style="fill:rgb(26,188,156);fill-rule:nonzero;"/>
</svg>
